icons/global/user-settings/fallback.svg

<svg xmlns="http://www.w3.org/2000/svg" width="24" height="24" fill="none">
  <path fill="#000" d="M12 2C6.486 2 2 6.487 2 12c0 5.515 4.486 10 10 10s10-4.485 10-10c0-5.513-4.486-10-10-10Zm0 16.25a1.25 1.25 0 1 1 0-2.5 1.25 1.25 0 0 1 0 2.5Zm1-4.375V15h-2v-3h1a2 2 0 1 0-2-2H8c0-2.205 1.795-4 4-4s4 1.795 4 4a4.01 4.01 0 0 1-3 3.875Z"/>
</svg>

<svg width="24" height="24" viewBox="0 0 24 24" fill="none" xmlns="http://www.w3.org/2000/svg">
<path d="M12 2C6.486 2 2 6.487 2 12C2 17.515 6.486 22 12 22C17.514 22 22 17.515 22 12C22 6.487 17.514 2 12 2ZM12 18.25C11.31 18.25 10.75 17.691 10.75 17C10.75 16.31 11.31 15.75 12 15.75C12.69 15.75 13.25 16.31 13.25 17C13.25 17.691 12.69 18.25 12 18.25ZM13 13.875V15H11V12H12C13.104 12 14 11.103 14 10C14 8.896 13.104 8 12 8C10.896 8 10 8.896 10 10H8C8 7.795 9.795 6 12 6C14.205 6 16 7.795 16 10C16 11.861 14.723 13.429 13 13.875Z" fill="black"/>
</svg>
